X:1
T: Orange Nan
N:
C:
S:
A:
O:
R:
M:3/2
K:G
I:speed 150
%W: A1
% voice 1 (1 lines, 23 notes)
K:G
M:3/2
L:1/16
f4 |g4 d4 |g4 B4 |d4 B4 |c4 A8 |a4 b4 |g4 a4 |f4 g4 |e4 f4 |d4 g4 |G8 |d4 e4 |f4
%W: A2
% voice 1 (1 lines, 22 notes)
g4 |d4 g4 |B4 d4 |B4 c4 |A8 |a4 b4 |g4 a4 |f4 g4 |e4 f4 |d4 g4 |G8 |d4 e4 |f4
%W: B1
% voice 1 (1 lines, 22 notes)
g4 |b4 a4 |c'4 b4 |g4 f4 |a8 |d4 e4 |f4 g4 |B4 c4 |e4 a4 |e4 f4 |d8 |c4 B4 |d4
%W:
% voice 1 (1 lines, 23 notes)
g4 |B4 c4 |e4 a4 |e4 f4 |a4 g4 |b4 a4 |c'4 b4 |B4 c4 |e4 d4 |f4 g4 |G8 |d4 e4 |f4
%W: B2
% voice 1 (1 lines, 22 notes)
g4 |b4 a4 |c'4 b4 |g4 f4 |a8 |d4 e4 |f4 g4 |B4 c4 |e4 a4 |e4 f4 |d8 |c4 B4 |d4
%W:                                                                                                         End only
% voice 1 (1 lines, 26 notes)
g4 |B4 c4 |e4 a4 |e4 f4 |a4 g4 |b4 a4 |c'4 b4 |B4 c4 |e4 d4 |f4 g4 |G8 |d4 e4 |f4 |g4 G8|G12 ||
